icons/src/scalable/default/places/folder-mega-symbolic.svg

<svg viewBox="0 0 16 16" xmlns="http://www.w3.org/2000/svg">
 <path d="m8 1c-3.866 0-7 3.134-7 7s3.134 7 7 7 7-3.134 7-7-3.134-7-7-7zm-4 3h2l2 3 2-3h2v8h-2v-4l-2 2-2-2v4h-2z" fill="#363636"/>
</svg>

<svg xmlns="http://www.w3.org/2000/svg" width="16" height="16">
 <defs>
  <style id="current-color-scheme" type="text/css">
   .ColorScheme-Text { color:#363636; }
  </style>
 </defs>
 <path class="ColorScheme-Text" fill="currentColor" d="M 8,1 C 4.134,1 1,4.134 1,8 1,11.866 4.134,15 8,15 11.866,15 15,11.866 15,8 15,4.134 11.866,1 8,1 Z M 4,4 H 6 V 4 4 L 8,7 10,4 H 12 V 12 H 10 V 8 L 8,10 6,8 V 12 H 4 Z"/>
</svg>
